X:22
T:Lovely Nymph. JJo.022
S:J.Jones MS,1801,N.Shrops.
A:N Shropshire
C:Thomas Ellway
Z:Neil Brookes 2006
M:3/4
L:1/8
Q:3/4=40
K:C
efgedc|g4ab|a2g2Tf2|gec2z2|!
f2e2c’2|a2g2 (3ceg|f2e2Td2|c6|!
efgedc|g4ab|c’2b2a2|gec2z2|
f2e2c’2|a2g2c/e/g/c’/|{b}ag/f/e2Td2|c4::!
c’4|d’2e’2d’2|c’2ge (3ceg|a2b2c’2|!
c4d2|e2g2c’2|(3e’d’c’ c’2b2|g6|!
efgedc|g4ab|c’2b2Ta2|g2z2c2|!
f2e2c’2|a2g2ce/g/c’/|{b}ag/f/e2d2|c6:|

